X: 1
T: SATURDAY NIGHT
S: MDT
O: Bucknell
P: A.(A2B)10
Q: 3/8=96
B: Morris Ring
Z: 2005 John Chambers <jc@trillian.mit.edu>
M: 6/8
L: 1/8
K: Bb
P: A
|: dcB Bff | fcc c3 | dcB GGG | cBA B3 :|
P: B
   cFF F3 | ccd e3 | dcB def | FBA B3 |
   cFF F3 | ccd e2d |[M:3/8]e3 |[M:6/8]d2c B3 | d2e f3 |[M:9/8]((2FB) A3 B3 ||
P: B 6-10 as collected by T.M.
   ccd e3 | d2c B3 | d2e f3 | ((2FB) A3 | B3 B3 ||
